svgs/sharp-regular/clapperboard-play.svg

<svg xmlns="http://www.w3.org/2000/svg" viewBox="0 0 512 512"><!--! Font Awesome Pro 6.6.0 by @fontawesome - https://fontawesome.com License - https://fontawesome.com/license (Commercial License) Copyright 2024 Fonticons, Inc. --><path d="M48 432l0-224 416 0 0 224L48 432zM336 160l80-80 48 0 0 16-64 64-64 0zm-96 0l-64 0 80-80 64 0-80 80zM80 160l-32 0 0-32L96 80l64 0L80 160zm432 24l0-24 0-80 0-48-48 0L48 32 0 32 0 80l0 80 0 24 0 24L0 432l0 48 48 0 416 0 48 0 0-48 0-224 0-24zM344 320L208 232l0 176 136-88z"/></svg>

<svg xmlns="http://www.w3.org/2000/svg" viewBox="0 0 512 512"><!--! Font Awesome Pro 6.4.2 by @fontawesome - https://fontawesome.com License - https://fontawesome.com/license (Commercial License) Copyright 2023 Fonticons, Inc. --><path d="M48 432V208H464V432H48zM336 160l80-80h48V96l-64 64H336zm-96 0H176l80-80h64l-80 80zM80 160H48V128L96 80h64L80 160zm432 24V160 80 32H464 48 0V80v80 24 24V432v48H48 464h48V432 208 184zM344 320L208 232V408l136-88z"/></svg>
